X:3
T: Rosestock, Holderbl!
N: T0007A
O: Osteuropa, Ungarn
N: bekannt
R: Barbara
M: 3/4
L: 1/16
K: C
 | e6d2c2E2 | A4G2F2D4 | A4G2F2D4 | A4G2E2C3z
e6d2c2E2 | A4G2F2D4 | G4A4B4 | c8z4
f3ed4z4 | e3dc4z4 | G4A4B4 | c2B2c2d2e4
f4ed4z3 | e3dc4z4 | G4A4B4 | c8z4

